X: 32656
T: Plum Creek
R: waltz
M: 3/4
K: Eminor
"Em"E3 F GA|"/Eb"B>cB2E2|"Em/D"e>fg2f2|"/C#" (3fgf e2-ed|"C"B3c BA|"Em7/B"GAB2ED|"Am"CG Bc BG|"B"(3FGF B,4|
"Em"E3 F GA|"/Eb"B>cB2E2|"Em/D"e>fg2f2|"/C#"(3fgf ed ef|"C"gab2b2|"Em7/B"fga2a2|"Am7"ef gf ed|cB AG FE|
"B7"^DF B,2BA|"C"GA Bc BG|"B"Fc BA GF|"Em"(3FGF E3D||"Em"E3 F GA|"/Eb"B>cB2E2|"Em/D"e>fg2f2|"/C#"(3fgf e2-ed|
"C"B3c BA|"Em7/B"GAB2ED|"Am"CG Bc BG|"B7"(3FGF B,4|"Em"E3 F GA|"/Eb"B>cB2E2|"Em/D"e>fg2f2|"/C#"(3fgf ed ef|
"Em"gab2b2|"F#dim"fga2a2|"Am7"efg2g2|"B7"^de fc BA|"C"GA Bc BG|"B7"Fc BA GF|"Em"(3FGF E3D||
"G"B,3DGA|Bcd2d2|"C"cde2d2|"Am"(3ded c3B|"D"A3BAG|FG A2D2|"D7"ded2c2|"G"(3cdc BA GF|
"Em"E2(3DED CB,|"Am"CD EC A,2|"C"AB c2B2|"B7"(3BcB AF GA|"Em"Be Be Be|"B7"Ae Ae Ae|"Gdim"Ge Ge Ge|"F#dim"F3ABA|
"C"GA Bc BG|"B"Fc BA GF|"Em"(3FGF E3D||"G"B,3DGA|Bcd2d2|"C"cde2d2|"Am"(3ded c3B|"D"A3BAG|
FG A2D2|"B7"Bc BG AF|"Em"GB AG (3FGF|E2(3DED CB,|"Am"CD EC A,2|"C"AB c2B2|"B7"(3BcB AF GA|
"Em"Be Be Be|"B7"Ae Ae Ae|"Gdim"Ge Ge Ge|"F#dim"F3ABA|"C"GA Bc BG|"B7"Fc BA GF|"Em"(3FGF E3D||
"Em"E3 F GA|"/Eb"B>cB2E2|"Em/D"e>fg2f2|"/C#"(3fgf e2-ed|"C"B3c BA|"Em7/B"GAB2ED|"Am7"CG Bc BG|"B7"(3FGF B,4|
"Em"E3 F GA|"/Eb"B>cB2E2|"Em/D"e>fg2f2|"/C#"(3fgf ed ef|"Em"gab2b2|"F#dim"fga2a2|"Am7"efg2g2|"B7"^de fc BA|
"C"GA Bc BG|"B7"Fc BA GF|"Em"(3FGF E3D||"G"B,3DGA|Bcd2d2|"C"cde2d2|"Am7"(3ded c3B|"D"A3BAG|
"D7"FG A2D2|ded2c2|"Em"(3cdc BA GF|E2(3DED CB,|"Am"CD EC A,2|"C"AB c2B2|"B7"(3BcB AF GA|
"Em"Be Be Be|"B7"Ae Ae Ae|"Gdim"Ge Ge Ge|"F#dim"F3ABA|"C"GA Bc BG|"B7 ritard"Fc BA GF|"Em"E6|.E2z2z2||

